;FLAVOR:UltiGCode
;TIME:4618
;MATERIAL:10542
;MATERIAL2:0
;NOZZLE_DIAMETER:0.4
;POSTPROCESSED
;Generated with Cura_SteamEngine 2.6.2

;LAYER_COUNT:20
;LAYER:0
M107
G0 F4500 X86.597 Y58.268 Z0.27
G0 X86.918 Y57.891
;TYPE:SKIRT
G1 F1800 X89.123 Y55.682 E0.29495
G1 X89.506 Y55.355 E0.34254
G1 X89.926 Y55.097 E0.38912
G1 X92.71 Y53.675 E0.68454
G1 X93.175 Y53.483 E0.73208
G1 X93.691 Y53.362 E0.78217
G1 X96.906 Y52.888 E1.08927
G1 X97.408 Y52.854 E1.13682
G1 X97.729 Y52.874 E1.16721
G1 X103.267 Y53.505 E1.69394
G1 X108.729 Y53.816 E2.21093
G1 X114.201 Y53.818 E2.72804
G1 X119.678 Y53.51 E3.24643
G1 X125.384 Y52.858 E3.78916
G1 X125.887 Y52.84 E3.83672
G1 X126.237 Y52.876 E3.86997
G1 X129.321 Y53.361 E4.16499
G1 X129.811 Y53.478 E4.2126
G1 X130.268 Y53.667 E4.25933
G1 X133.057 Y55.086 E4.55504
G1 X133.486 Y55.349 E4.6026
G1 X133.861 Y55.669 E4.64918
G1 X136.068 Y57.873 E4.94393
G1 X136.395 Y58.256 E4.99152
G1 X136.651 Y58.675 E5.03792
G1 X138.074 Y61.459 E5.33339
G1 X138.267 Y61.924 E5.38096
G1 X138.382 Y62.405 E5.4277
G1 X138.875 Y65.501 E5.72396
G1 X138.915 Y66 E5.77126
G1 X138.915 Y166.986 E15.31444
G1 X138.875 Y167.488 E15.36203
G1 X138.756 Y167.977 E15.40959
G1 X138.562 Y168.442 E15.4572
G1 X138.296 Y168.87 E15.50482
G1 X137.966 Y169.25 E15.55238
G1 X137.58 Y169.573 E15.59995
G1 X137.148 Y169.832 E15.64755
G1 X136.68 Y170.019 E15.69517
G1 X136.189 Y170.129 E15.74272
G1 X135.74 Y170.161 E15.78526
G1 X87.259 Y170.16 E20.36671
G1 X86.757 Y170.12 E20.4143
G1 X86.268 Y170.001 E20.46186
G1 X85.803 Y169.807 E20.50948
G1 X85.375 Y169.541 E20.5571
G1 X84.995 Y169.211 E20.60466
G1 X84.671 Y168.825 E20.65228
G1 X84.413 Y168.393 E20.69983
G1 X84.226 Y167.925 E20.74746
G1 X84.116 Y167.434 E20.79501
G1 X84.084 Y166.985 E20.83755
G1 X84.084 Y66.028 E30.37798
G1 X84.123 Y65.535 E30.42472
G1 X84.61 Y62.437 E30.72107
G1 X84.727 Y61.947 E30.76868
G1 X84.915 Y61.493 E30.81512
G1 X86.334 Y58.697 E31.11142
G1 X86.597 Y58.268 E31.15897
G1 X86.918 Y57.891 E31.20576
G10
G0 F4500 X88.73 Y59.569
G0 X89.607 Y60.444
G0 X89.671 Y60.491
G0 X89.591 Y60.433
;TYPE:WALL-INNER
G11
G1 F1800 X91.683 Y58.341 E31.48534
G1 X94.324 Y56.995 E31.76546
G1 X97.25 Y56.532 E32.04541
G1 X100.176 Y56.995 E32.32536
G1 X102.817 Y58.341 E32.60547
G1 X104.909 Y60.433 E32.88506
G1 X106.255 Y63.074 E33.16518
G1 X106.718 Y66 E33.44512
G1 X106.561 Y67 E33.54078
G1 X106.557 Y67.025 E33.54317
G1 X106.725 Y67.025 E33.5528
G1 X106.725 Y166.475 E42.95083
G1 X87.95 Y166.475 E44.72506
G1 X87.775 Y166.475 E44.7416
G1 X87.775 Y166.3 E44.7523
G1 X87.778 Y67.025 E54.13379
G1 X87.943 Y67.025 E54.14938
G1 X87.94 Y67.001
G1 X87.782 Y66 E54.24515
G1 X88.245 Y63.074 E54.5251
G1 X89.591 Y60.433 E54.80522
G0 F4500 X89.671 Y60.491
G0 X88.152 Y162.905
G0 X88.222 Y162.975
G1 F1800 X88.222 Y166.028 E55.09372
G1 X106.278 Y166.028 E56.80002
G1 X106.278 Y162.975 E57.08852
G1 X88.222 Y162.975 E58.79482
G0 F4500 X88.547 Y163.3
;TYPE:WALL-OUTER
G1 F1800 X88.547 Y165.703 E59.0219
G1 X105.953 Y165.703 E60.66677
G1 X105.953 Y163.3 E60.89385
G1 X88.547 Y163.3 E62.53872
G0 F4500 X88.547 Y163.5
G0 X88.122 Y163.5
G0 X87.845 Y166.405
G0 X87.45 Y166.625
G1 F1800 X87.453 Y66.7 E71.98163
G1 X87.563 Y66.7 E71.99202
G1 X87.561 Y66.684
G1 X87.453 Y66 E72.05746
G1 X87.932 Y62.971 E72.34726
G1 X89.324 Y60.24 E72.63693
G1 X91.49 Y58.074 E72.9264
G1 X94.221 Y56.682 E73.21607
G1 X97.25 Y56.203 E73.50587
G1 X100.279 Y56.682 E73.79567
G1 X103.01 Y58.074 E74.08534
G1 X105.176 Y60.24 E74.37481
G1 X106.568 Y62.971 E74.66448
G1 X107.047 Y66 E74.95428
G1 X106.94 Y66.683 E75.01961
G1 X106.937 Y66.7 E75.02124
G1 X107.05 Y66.7 E75.02727
G1 X107.05 Y166.8 E84.48672
G1 X87.625 Y166.8 E86.32238
G1 X87.45 Y166.8 E86.33892
G1 X87.45 Y166.625 E86.34962
G0 F4500 X87.45 Y166.425
G0 X88.02 Y166.226
G1 F1800 X88.538 Y166.249 E86.3702
G1 X89.033 Y166.249 E86.38771
G1 X89.528 Y166.249 E86.40521
G1 X90.023 Y166.249 E86.42272
G1 X90.518 Y166.249 E86.44023
G1 X91.013 Y166.249 E86.45774
G1 X91.508 Y166.249 E86.47525
G1 X92.003 Y166.249 E86.49275
G1 X92.498 Y166.249 E86.51026
G1 X92.993 Y166.249 E86.52777
G1 X93.488 Y166.249 E86.54528
G1 X93.983 Y166.249 E86.56279
G1 X94.478 Y166.249 E86.5803
G1 X94.973 Y166.249 E86.5978
G1 X95.468 Y166.249 E86.61531
G1 X95.963 Y166.249 E86.63282
G1 X96.458 Y166.249 E86.65033
G1 X96.953 Y166.249 E86.66784
G1 X97.448 Y166.249 E86.68534
G1 X97.943 Y166.249 E86.70285
G1 X98.438 Y166.249 E86.72036
G1 X98.933 Y166.249 E86.73787
G1 X99.428 Y166.249 E86.75538
G1 X99.923 Y166.249 E86.77289
G1 X100.418 Y166.249 E86.79039
G1 X100.913 Y166.249 E86.8079
G1 X101.408 Y166.249 E86.82541
G1 X101.903 Y166.249 E86.84292
G1 X102.398 Y166.249 E86.86043
G1 X102.893 Y166.249 E86.87793
G1 X103.388 Y166.249 E86.89544
G1 X103.883 Y166.249 E86.91295
G1 X104.378 Y166.249 E86.93046
G1 X104.873 Y166.249 E86.94797
G1 X105.368 Y166.249 E86.96547
G1 X105.863 Y166.249 E86.98298
G1 X106.357 Y166.249 E87.00046
G1 X106.501 Y165.898 E87.01797
G1 X106.501 Y165.403 E87.03561
G1 X106.501 Y164.908 E87.05326
G1 X106.501 Y164.413 E87.0709
G1 X106.501 Y163.918 E87.08854
G1 X106.501 Y163.423 E87.10618
G1 X106.501 Y162.928 E87.12382
G0 F4500 X106.389 Y162.816
;TYPE:SKIN
G1 F1800 X87.932 Y144.36 E89.59041
G1 X87.871 Y144.299
G0 F4500 X87.932 Y144.855
G1 F1800 X105.894 Y162.816 E91.99084
G1 X105.955 Y162.877
G0 F4500 X105.399 Y162.816
G1 F1800 X87.932 Y145.35 E94.32512
G1 X87.871 Y145.289
G0 F4500 X87.932 Y145.845
G1 F1800 X104.904 Y162.816 E96.59324
G1 X104.965 Y162.877
G0 F4500 X104.409 Y162.816
G1 F1800 X87.932 Y146.339 E98.79528
G1 X87.871 Y146.278
G0 F4500 X87.932 Y146.834
G1 F1800 X103.914 Y162.816 E100.93117
G1 X103.975 Y162.877
G0 F4500 X103.419 Y162.816
G1 F1800 X87.932 Y147.329 E103.0009
G1 X87.871 Y147.268
G0 F4500 X87.932 Y147.824
G1 F1800 X102.924 Y162.816 E105.00448
G1 X102.985 Y162.877
G0 F4500 X102.429 Y162.816
G1 F1800 X87.932 Y148.319 E106.9419
G1 X87.871 Y148.258
G0 F4500 X87.932 Y148.814
G1 F1800 X101.934 Y162.816 E108.81318
G1 X101.995 Y162.877
G0 F4500 X101.439 Y162.816
G1 F1800 X87.932 Y149.309 E110.61829
G1 X87.871 Y149.248
G0 F4500 X87.932 Y149.804
G1 F1800 X100.944 Y162.816 E112.35726
G1 X101.005 Y162.877
G0 F4500 X100.449 Y162.816
G1 F1800 X87.932 Y150.299 E114.03007
G1 X87.871 Y150.238
G0 F4500 X87.932 Y150.794
G1 F1800 X99.954 Y162.816 E115.63673
G1 X100.015 Y162.877
G0 F4500 X99.459 Y162.816
G1 F1800 X87.932 Y151.289 E117.17723
G1 X87.871 Y151.228
G0 F4500 X87.932 Y151.784
G1 F1800 X98.964 Y162.816 E118.65159
G1 X99.025 Y162.877
G0 F4500 X98.469 Y162.816
G1 F1800 X87.932 Y152.279 E120.05978
G1 X87.871 Y152.218
G0 F4500 X87.932 Y152.774
G1 F1800 X97.974 Y162.816 E121.40183
G1 X98.035 Y162.877
G0 F4500 X97.479 Y162.816
G1 F1800 X87.932 Y153.269 E122.67772
G1 X87.871 Y153.208
G0 F4500 X87.932 Y153.764
G1 F1800 X96.984 Y162.816 E123.88746
G1 X97.045 Y162.877
G0 F4500 X96.489 Y162.816
G1 F1800 X87.932 Y154.259 E125.03104
G1 X87.871 Y154.198
G0 F4500 X87.932 Y154.754
G1 F1800 X95.994 Y162.816 E126.10847
G1 X96.055 Y162.877
G0 F4500 X95.499 Y162.816
G1 F1800 X87.932 Y155.249 E127.11975
G1 X87.871 Y155.188
G0 F4500 X87.932 Y155.744
G1 F1800 X95.004 Y162.816 E128.06488
G1 X95.065 Y162.877
G0 F4500 X94.509 Y162.816
G1 F1800 X87.932 Y156.239 E128.94385
G1 X87.871 Y156.178
G0 F4500 X87.932 Y156.734
G1 F1800 X94.014 Y162.816 E129.75667
G1 X94.075 Y162.877
G0 F4500 X93.519 Y162.816
G1 F1800 X87.932 Y157.229 E130.50333
G1 X87.871 Y157.168
G0 F4500 X87.932 Y157.724
G1 F1800 X93.024 Y162.816 E131.18384
G1 X93.085 Y162.877
G0 F4500 X92.529 Y162.816
G1 F1800 X87.932 Y158.219 E131.7982
G1 X87.871 Y158.158
G0 F4500 X87.932 Y158.714
G1 F1800 X92.034 Y162.816 E132.3464
G1 X92.095 Y162.877
G0 F4500 X91.539 Y162.816
G1 F1800 X87.932 Y159.209 E132.82845
G1 X87.871 Y159.148
G0 F4500 X87.932 Y159.704
G1 F1800 X91.044 Y162.816 E133.24435
G1 X91.105 Y162.877
G0 F4500 X90.549 Y162.816
G1 F1800 X87.932 Y160.199 E133.5941
G1 X87.871 Y160.138
G0 F4500 X87.932 Y160.694
G1 F1800 X90.054 Y162.816 E133.87769
G1 X90.115 Y162.877
G0 F4500 X89.56 Y162.816
G1 F1800 X87.932 Y161.189 E134.09519
G1 X87.871 Y161.128
G0 F4500 X87.932 Y161.684
G1 F1800 X89.065 Y162.816 E134.24654
G1 X89.126 Y162.877
G0 F4500 X88.57 Y162.816
G1 F1800 X87.932 Y162.179 E134.33174
G1 X87.871 Y162.118
G0 F4500 X88.003 Y162.745
G1 F1800 X87.997 Y163.234 E134.34996
G1 X87.997 Y163.729 E134.36747
G1 X87.997 Y164.224 E134.38498
G1 X87.997 Y164.719 E134.40249
G1 X87.997 Y165.214 E134.41999
G1 X87.997 Y165.709 E134.4375
G0 F4500 X88.063 Y165.774
G0 X88.194 Y162.947
G0 X106.567 Y162.499
G1 F1800 X87.932 Y143.865 E136.92788
G1 X87.871 Y143.804
G0 F4500 X87.932 Y143.37
G1 F1800 X106.567 Y162.004 E139.41825
G1 X106.628 Y162.065
G0 F4500 X106.567 Y161.509
G1 F1800 X87.932 Y142.875 E141.90862
G1 X87.871 Y142.814
G0 F4500 X87.932 Y142.38
G1 F1800 X106.567 Y161.014 E144.399
G1 X106.628 Y161.075
G0 F4500 X106.567 Y160.519
G1 F1800 X87.932 Y141.885 E146.88937
G1 X87.871 Y141.824
G0 F4500 X87.932 Y141.39
G1 F1800 X106.567 Y160.024 E149.37975
G1 X106.628 Y160.085
G0 F4500 X106.567 Y159.529
G1 F1800 X87.932 Y140.895 E151.87012
G1 X87.871 Y140.834
G0 F4500 X87.932 Y140.4
G1 F1800 X106.567 Y159.034 E154.36049
G1 X106.628 Y159.095
G0 F4500 X106.567 Y158.539
G1 F1800 X87.932 Y139.905 E156.85087
G1 X87.871 Y139.844
G0 F4500 X87.932 Y139.41
G1 F1800 X106.567 Y158.044 E159.34124
G1 X106.628 Y158.105
G0 F4500 X106.567 Y157.549
G1 F1800 X87.932 Y138.915 E161.83161
G1 X87.871 Y138.854
G0 F4500 X87.932 Y138.42
G1 F1800 X106.567 Y157.054 E164.32199
G1 X106.628 Y157.115
G0 F4500 X106.567 Y156.559
G1 F1800 X87.932 Y137.925 E166.81236
G1 X87.871 Y137.864
G0 F4500 X87.932 Y137.43
G1 F1800 X106.567 Y156.064 E169.30274
G1 X106.628 Y156.125
G0 F4500 X106.567 Y155.569
G1 F1800 X87.932 Y136.935 E171.79311
G1 X87.871 Y136.874
G0 F4500 X87.932 Y136.44
G1 F1800 X106.567 Y155.074 E174.28348
G1 X106.628 Y155.135
G0 F4500 X106.567 Y154.579
G1 F1800 X87.932 Y135.945 E176.77386
G1 X87.871 Y135.884
G0 F4500 X87.932 Y135.45
G1 F1800 X106.567 Y154.084 E179.26423
G1 X106.628 Y154.145
G0 F4500 X106.567 Y153.589
G1 F1800 X87.932 Y134.955 E181.75461
G1 X87.871 Y134.894
G0 F4500 X87.932 Y134.46
G1 F1800 X106.567 Y153.094 E184.24498
G1 X106.628 Y153.155
G0 F4500 X106.567 Y152.6
G1 F1800 X87.932 Y133.965 E186.73542
G1 X87.871 Y133.904
G0 F4500 X87.932 Y133.47
G1 F1800 X106.567 Y152.105 E189.22586
G1 X106.628 Y152.166
G0 F4500 X106.567 Y151.61
G1 F1800 X87.933 Y132.976 E191.71617
G1 X87.872 Y132.915
G0 F4500 X87.933 Y132.481
G1 F1800 X106.567 Y151.115 E194.20648
G1 X106.628 Y151.176
G0 F4500 X106.567 Y150.62
G1 F1800 X87.933 Y131.986 E196.69678
G1 X87.872 Y131.925
G0 F4500 X87.933 Y131.491
G1 F1800 X106.567 Y150.125 E199.18709
G1 X106.628 Y150.186
G0 F4500 X106.567 Y149.63
G1 F1800 X87.933 Y130.996 E201.6774
G1 X87.872 Y130.935
G0 F4500 X87.933 Y130.501
G1 F1800 X106.567 Y149.135 E204.1677
G1 X106.628 Y149.196
G0 F4500 X106.567 Y148.64
G1 F1800 X87.933 Y130.006 E206.65801
G1 X87.872 Y129.945
G0 F4500 X87.933 Y129.511
G1 F1800 X106.567 Y148.145 E209.14832
G1 X106.628 Y148.206
G0 F4500 X106.567 Y147.65
G1 F1800 X87.933 Y129.016 E211.63862
G1 X87.872 Y128.955
G0 F4500 X87.933 Y128.521
G1 F1800 X106.567 Y147.155 E214.12893
G1 X106.628 Y147.216
G0 F4500 X106.567 Y146.66
G1 F1800 X87.933 Y128.026 E216.61924
G1 X87.872 Y127.965
G0 F4500 X87.933 Y127.531
G1 F1800 X106.567 Y146.165 E219.10955
G1 X106.628 Y146.226
G0 F4500 X106.567 Y145.67
G1 F1800 X87.933 Y127.036 E221.59985
G1 X87.872 Y126.975
G0 F4500 X87.933 Y126.541
G1 F1800 X106.567 Y145.175 E224.09016
G1 X106.628 Y145.236
G0 F4500 X106.567 Y144.68
G1 F1800 X87.933 Y126.046 E226.58047
G1 X87.872 Y125.985
G0 F4500 X87.933 Y125.551
G1 F1800 X106.567 Y144.185 E229.07077
G1 X106.628 Y144.246
G0 F4500 X106.567 Y143.69
G1 F1800 X87.933 Y125.056 E231.56108
G1 X87.872 Y124.995
G0 F4500 X87.933 Y124.561
G1 F1800 X106.567 Y143.195 E234.05139
G1 X106.628 Y143.256
G0 F4500 X106.567 Y142.7
G1 F1800 X87.933 Y124.066 E236.54169
G1 X87.872 Y124.005
G0 F4500 X87.933 Y123.571
G1 F1800 X106.567 Y142.205 E239.032
G1 X106.628 Y142.266
G0 F4500 X106.567 Y141.71
G1 F1800 X87.933 Y123.076 E241.52231
G1 X87.872 Y123.015
G0 F4500 X87.933 Y122.581
G1 F1800 X106.567 Y141.215 E244.01262
G1 X106.628 Y141.276
G0 F4500 X106.567 Y140.72
G1 F1800 X87.933 Y122.086 E246.50292
G1 X87.872 Y122.025
G0 F4500 X87.933 Y121.591
G1 F1800 X106.567 Y140.225 E248.99323
G1 X106.628 Y140.286
G0 F4500 X106.567 Y139.73
G1 F1800 X87.933 Y121.096 E251.48354
G1 X87.872 Y121.035
G0 F4500 X87.933 Y120.602
G1 F1800 X106.567 Y139.235 E253.97378
G1 X106.628 Y139.296
G0 F4500 X106.567 Y138.74
G1 F1800 X87.933 Y120.107 E256.46402
G1 X87.872 Y120.046
G0 F4500 X87.933 Y119.612
G1 F1800 X106.567 Y138.245 E258.95426
G1 X106.628 Y138.306
G0 F4500 X106.567 Y137.75
G1 F1800 X87.933 Y119.117 E261.4445
G1 X87.872 Y119.056
G0 F4500 X87.933 Y118.622
G1 F1800 X106.567 Y137.255 E263.93474
G1 X106.628 Y137.316
G0 F4500 X106.567 Y136.76
G1 F1800 X87.933 Y118.127 E266.42498
G1 X87.872 Y118.066
G0 F4500 X87.933 Y117.632
G1 F1800 X106.567 Y136.265 E268.91522
G1 X106.628 Y136.326
G0 F4500 X106.567 Y135.77
G1 F1800 X87.933 Y117.137 E271.40546
G1 X87.872 Y117.076
G0 F4500 X87.933 Y116.642
G1 F1800 X106.567 Y135.275 E273.8957
G1 X106.628 Y135.336
G0 F4500 X106.567 Y134.78
G1 F1800 X87.933 Y116.147 E276.38594
G1 X87.872 Y116.086
G0 F4500 X87.933 Y115.652
G1 F1800 X106.567 Y134.285 E278.87618
G1 X106.628 Y134.346
G0 F4500 X106.567 Y133.79
G1 F1800 X87.933 Y115.157 E281.36642
G1 X87.872 Y115.096
G0 F4500 X87.933 Y114.662
G1 F1800 X106.567 Y133.295 E283.85666
G1 X106.628 Y133.356
G0 F4500 X106.567 Y132.801
G1 F1800 X87.933 Y114.167 E286.34697
G1 X87.872 Y114.106
G0 F4500 X87.933 Y113.672
G1 F1800 X106.567 Y132.306 E288.83727
G1 X106.628 Y132.367
G0 F4500 X106.567 Y131.811
G1 F1800 X87.933 Y113.177 E291.32758
G1 X87.872 Y113.116
G0 F4500 X87.933 Y112.682
G1 F1800 X106.567 Y131.316 E293.81789
G1 X106.628 Y131.377
G0 F4500 X106.567 Y130.821
G1 F1800 X87.933 Y112.187 E296.3082
G1 X87.872 Y112.126
G0 F4500 X87.933 Y111.692
G1 F1800 X106.567 Y130.326 E298.7985
G1 X106.628 Y130.387
G0 F4500 X106.567 Y129.831
G1 F1800 X87.933 Y111.197 E301.28881
G1 X87.872 Y111.136
G0 F4500 X87.933 Y110.702
G1 F1800 X106.567 Y129.336 E303.77912
G1 X106.628 Y129.397
G0 F4500 X106.567 Y128.841
G1 F1800 X87.933 Y110.207 E306.26942
G1 X87.872 Y110.146
G0 F4500 X87.933 Y109.712
G1 F1800 X106.567 Y128.346 E308.75973
G1 X106.628 Y128.407
G0 F4500 X106.567 Y127.851
G1 F1800 X87.933 Y109.217 E311.25004
G1 X87.872 Y109.156
G0 F4500 X87.933 Y108.722
G1 F1800 X106.567 Y127.356 E313.74034
G1 X106.628 Y127.417
G0 F4500 X106.567 Y126.861
G1 F1800 X87.933 Y108.227 E316.23065
G1 X87.872 Y108.166
G0 F4500 X87.933 Y107.732
G1 F1800 X106.567 Y126.366 E318.72096
G1 X106.628 Y126.427
G0 F4500 X106.567 Y125.871
G1 F1800 X87.933 Y107.237 E321.21127
G1 X87.872 Y107.176
G0 F4500 X87.933 Y106.742
G1 F1800 X106.567 Y125.376 E323.70157
G1 X106.628 Y125.437
G0 F4500 X106.567 Y124.881
G1 F1800 X87.933 Y106.247 E326.19188
G1 X87.872 Y106.186
G0 F4500 X87.933 Y105.752
G1 F1800 X106.567 Y124.386 E328.68219
G1 X106.628 Y124.447
G0 F4500 X106.567 Y123.891
G1 F1800 X87.933 Y105.257 E331.17249
G1 X87.872 Y105.196
G0 F4500 X87.933 Y104.762
G1 F1800 X106.567 Y123.396 E333.6628
G1 X106.628 Y123.457
G0 F4500 X106.567 Y122.901
G1 F1800 X87.933 Y104.267 E336.15311
G1 X87.872 Y104.206
G0 F4500 X87.933 Y103.772
G1 F1800 X106.567 Y122.406 E338.64342
G1 X106.628 Y122.467
G0 F4500 X106.567 Y121.911
G1 F1800 X87.933 Y103.277 E341.13372
G1 X87.872 Y103.216
G0 F4500 X87.933 Y102.782
G1 F1800 X106.567 Y121.416 E343.62403
G1 X106.628 Y121.477
G0 F4500 X106.567 Y120.921
G1 F1800 X87.933 Y102.287 E346.11434
G1 X87.872 Y102.226
G0 F4500 X87.933 Y101.792
G1 F1800 X106.567 Y120.426 E348.60464
G1 X106.628 Y120.487
G0 F4500 X106.567 Y119.931
G1 F1800 X87.933 Y101.297 E351.09495
G1 X87.872 Y101.236
G0 F4500 X87.933 Y100.803
G1 F1800 X106.567 Y119.436 E353.58519
G1 X106.628 Y119.497
G0 F4500 X106.567 Y118.941
G1 F1800 X87.933 Y100.308 E356.07543
G1 X87.872 Y100.247
G0 F4500 X87.934 Y99.813
G1 F1800 X106.567 Y118.446 E358.5656
G1 X106.628 Y118.507
